X:1435
L:1/8
Q:3/8=120
M:6/8
K:C
 C |[K:D]"^Set of Quadrilles,No4" A | d2 A d2 A | B2 A ABc | d2 d ede | f2 d def | g2 g f2 f | 
 efd cBA | BAG FGA | B2 A A2 :: f/g/ | a2 b afe | b2 b a3 | b2 b afd | f2 e e2 a | b2 b a2 g | 
 fed cBA | BAG FGA | B2 A A2 :|

